src/sun.svg

<svg viewBox="0 0 16 16" fill="none" xmlns="http://www.w3.org/2000/svg"><path d="M8.5 1L8.50005 3.52955C10.5847 3.76013 12.2399 5.41535 12.4705 7.5L15 7.5V8.5L12.4704 8.50005C12.2399 10.5847 10.5847 12.2399 8.50005 12.4704L8.5 15H7.5L7.5 12.4705C5.41534 12.2399 3.76011 10.5847 3.52955 8.5L1 8.5V7.5L3.52955 7.49995C3.76013 5.41531 5.41535 3.7601 7.5 3.52955L7.5 1H8.5ZM10.933 12.0801L11.933 13.8122L11.067 14.3122L10.067 12.5801L10.933 12.0801ZM5.06699 12.0801L5.93301 12.5801L4.93301 14.3122L4.06699 13.8122L5.06699 12.0801ZM3.41987 10.067L3.91987 10.933L2.18782 11.933L1.68782 11.067L3.41987 10.067ZM12.5801 10.067L14.3122 11.067L13.8122 11.933L12.0801 10.933L12.5801 10.067ZM8 4.50207C6.06815 4.50207 4.50207 6.06815 4.50207 8C4.50207 9.93185 6.06815 11.4979 8 11.4979C9.93185 11.4979 11.4979 9.93185 11.4979 8C11.4979 6.06815 9.93185 4.50207 8 4.50207ZM13.8122 4.06699L14.3122 4.93301L12.5801 5.93301L12.0801 5.06699L13.8122 4.06699ZM2.18782 4.06699L3.91987 5.06699L3.41987 5.93301L1.68782 4.93301L2.18782 4.06699ZM4.93301 1.68782L5.93301 3.41987L5.06699 3.91987L4.06699 2.18782L4.93301 1.68782ZM11.067 1.68782L11.933 2.18782L10.933 3.91987L10.067 3.41987L11.067 1.68782Z" fill="#111111"/></svg>

<svg viewBox="0 0 16 16" fill="none" xmlns="http://www.w3.org/2000/svg"><path d="M8.5 1v2.53a4.5 4.5 0 0 1 3.97 3.97H15v1h-2.53a4.5 4.5 0 0 1-3.97 3.97V15h-1v-2.53A4.5 4.5 0 0 1 3.53 8.5H1v-1h2.53A4.5 4.5 0 0 1 7.5 3.53V1h1Zm2.433 11.08 1 1.732-.866.5-1-1.732.866-.5Zm-5.866 0 .866.5-1 1.732-.866-.5 1-1.732ZM3.42 10.067l.5.866-1.732 1-.5-.866 1.732-1Zm9.16 0 1.732 1-.5.866-1.732-1 .5-.866ZM8 4.502a3.498 3.498 0 1 0 0 6.996 3.498 3.498 0 0 0 0-6.996Zm5.812-.435.5.866-1.732 1-.5-.866 1.732-1Zm-11.624 0 1.732 1-.5.866-1.732-1 .5-.866Zm2.745-2.38 1 1.733-.866.5-1-1.732.866-.5Zm6.134 0 .866.5-1 1.733-.866-.5 1-1.732Z" fill="#111111"/></svg>
